assets/icons/power-filled.svg

<svg height="24" width="24" xmlns="http://www.w3.org/2000/svg"><path style="fill:gray;fill-opacity:1;stroke-width:1.5;stroke-linecap:square;stroke-linejoin:round" d="M12 2.5A9.5 9.5 0 0 0 2.5 12a9.5 9.5 0 0 0 9.5 9.5 9.5 9.5 0 0 0 9.5-9.5A9.5 9.5 0 0 0 12 2.5zm.5 4v5h2l-3 6v-5h-2l3-6z"/></svg>

<?xml version="1.0" encoding="UTF-8" standalone="no"?>
<svg viewBox="0 0 24 24" height="24" id="svg7384" version="1.1" width="24" sodipodi:docname="power-filled.svg" inkscape:version="1.1 (ce6663b3b7, 2021-05-25)"
   xmlns:inkscape="http://www.inkscape.org/namespaces/inkscape"
   xmlns:sodipodi="http://sodipodi.sourceforge.net/DTD/sodipodi-0.dtd"
   xmlns="http://www.w3.org/2000/svg"
   xmlns:svg="http://www.w3.org/2000/svg"
   xmlns:rdf="http://www.w3.org/1999/02/22-rdf-syntax-ns#"
   xmlns:cc="http://creativecommons.org/ns#"
   xmlns:dc="http://purl.org/dc/elements/1.1/">
   <sodipodi:namedview id="namedview22" pagecolor="#ffffff" bordercolor="#666666" borderopacity="1.0" inkscape:pageshadow="2" inkscape:pageopacity="0.0" inkscape:pagecheckerboard="0" showgrid="false" inkscape:snap-page="true" inkscape:zoom="28" inkscape:cx="7.9821429" inkscape:cy="9.25" inkscape:window-width="1920" inkscape:window-height="1043" inkscape:window-x="1920" inkscape:window-y="0" inkscape:window-maximized="1" inkscape:current-layer="svg7384" />
   <metadata id="metadata20854">
      <rdf:RDF>
         <cc:Work rdf:about="">
            <dc:format>image/svg+xml</dc:format>
            <dc:type rdf:resource="http://purl.org/dc/dcmitype/StillImage" />
         </cc:Work>
      </rdf:RDF>
   </metadata>
   <defs id="defs7386">
      <linearGradient id="linearGradient5606" inkscape:swatch="solid">
         <stop id="stop5608" offset="0" style="stop-color:#000000;stop-opacity:1;" />
      </linearGradient>
      <linearGradient id="linearGradient4526" inkscape:swatch="solid">
         <stop id="stop4528" offset="0" style="stop-color:#ffffff;stop-opacity:1;" />
      </linearGradient>
      <linearGradient id="linearGradient3600-4" inkscape:swatch="gradient">
         <stop id="stop3602-7" offset="0" style="stop-color:#f4f4f4;stop-opacity:1" />
         <stop id="stop3604-6" offset="1" style="stop-color:#dbdbdb;stop-opacity:1" />
      </linearGradient>
   </defs>
   <path id="path862" style="fill:#808080;fill-opacity:1;fill-rule:evenodd;stroke-width:1.5;stroke-linecap:square;stroke-linejoin:round" d="M 12 2.5 A 9.5 9.5 0 0 0 2.5 12 A 9.5 9.5 0 0 0 12 21.5 A 9.5 9.5 0 0 0 21.5 12 A 9.5 9.5 0 0 0 12 2.5 z M 12.5 6.5 L 12.5 11.5 L 14.5 11.5 L 11.5 17.5 L 11.5 12.5 L 9.5 12.5 L 12.5 6.5 z " />
   <g id="layer9" label="status" style="display:inline;fill:#808080;fill-opacity:1;stroke-width:0.8" transform="matrix(1.25,0,0,1.25,-963.7503,236.25)" />
   <g id="layer2" style="display:inline;fill:#808080;fill-opacity:1;stroke-width:0.8" transform="matrix(1.25,0,0,1.25,-662.50005,-222.5)" />
   <g id="layer4" style="display:inline;fill:#808080;fill-opacity:1;stroke-width:0.8" transform="matrix(1.25,0,0,1.25,-662.50005,-222.5)" />
   <g id="g1812" style="display:inline;fill:#808080;fill-opacity:1;stroke-width:0.8" transform="matrix(1.25,0,0,1.25,-662.50005,-222.5)" />
   <g id="g6217" style="display:inline;fill:#808080;fill-opacity:1;stroke-width:0.8" transform="matrix(1.25,0,0,1.25,-662.50005,-222.5)" />
   <g id="layer3" style="display:inline;fill:#808080;fill-opacity:1;stroke-width:0.8" transform="matrix(1.25,0,0,1.25,-662.50005,-222.5)" />
   <g id="layer1" style="display:inline;fill:#808080;fill-opacity:1;stroke-width:0.8" transform="matrix(1.25,0,0,1.25,-662.50005,-222.5)" />
</svg>
